!!!COM: Gabriel Faure/
!!!CNT: Francais
!!!TXO: Francais
!!!OTL: Le Pays des Re^ves
!!!LYR: Armand Silvestre
!!!OPS: Op. 39
!!!ONM: No. 3
!!!ENC: Jacob Pegg
!!!YOR: Album of Twenty Songs (Vingt Me/lodies,) Volume II
!!!YOR: Edward B. Marks Music Corporation, RCA Building, Radio
!!!YOR: City, New York 20, N.Y.
!!!ODT: 1884/
!!NB: Vocal melody and text only encoded.
!!NB: First instance of melodic material only encoded.
**kern	**silbe
*clef G2	*
*k[b-e-a-d-]	*
*M12/8	*
*MM84	*
!! Andante quasi allegretto
!!created: 2/13/04 0:03
!!proofed and posted: 2/27/04 13:54
!!edit time: 56 min.
=1	=1
1r	.
2r	.
=2	=2
2r	.
4r	.
4r	.
8r	.
4r	.
{8cc	{Veux~
=3	=3
[4.ee-	~tu
4ee-]	|
8ee-	qu'au
4ee-	beau
8b-	pa-
(8g	-ys
8a-)	|
8b-	des
=4	=4
4cc	re^-
8cc}	-ves}
{4ff	{Nous
8ee-	al-
4dd-	-lions
8b-	la
8g-	main
8b-	dans
8dd-	la
=5	=5
1.ee-}	main?}
!!mm 6-10 repeat of first phrase
=10	=10
1r	.
8r	.
4r	.
{8ee-	{Veux~
=11	=11
[4.gg	~tu
4gg]	|
8ee-	du
4ddn	beau
8bn	pa-
(8g	-ys
8an)	|
8bn	des
=12	=12
2.cc	re^-
2.bn}	-ves,}
=13	=13
{4g	{Tous
8an	les
4bn	deux
8cc#	cher-
4.dd#	-cher
4ee-	le
8ee-	che-
=14	=14
1.ee-}	-min?}
!!mm.15-23 repeat
=24	=24
{4ee-	{J'ai
8gg	tail-
4.ee-	-le/
4ddn	dans
8bn	l'a-
(8g	-zur
8an)	|
8bn	les
=25	=25
2.cc	toi-
2.bn}	-les}
!!mm.26-29 rpt.	
=30	=30
*M4/4	*
{8an	{Mais
8an	com-
8b-	-bien
8cc	la
4dd-	ter-
8cc	-re est
8dd-	loin-
=31	=31
2ee-	-tai-
4ee-}	-ne,}
{8ee-	{Que
8ee-	pour-
=32	=32
(8ff	-sui-
8ee-)	|
8dd-	-vent
8cc-	ses
4b-	blancs
(8g-	sil-
8a-)	|
=33	=33
*M12/8	*
[2.b-	-lons;
4b-]}	|}
8r	.
{4b-	{Au
8b-	ca-
=34	=34
4.dd-	-pri-
4.b-	-ce
4.b-	des
4ee-	pa-
8b-	-pil-
=35	=35
4.b-}	-lons}
{4b-	{De-
8b-	-man-
[4.gg-	-dons
(8.gg-]	|
8.ff)	la
=36	=36
*M4/4	*
(8ff	rou-
8ee-)	|
8dd-	-te in-
8b-	-cer-
2a-	-tai-
=37	=37
2b-}	-ne.}
2r	.
=38	=38
{8e#	{Ah,
8e#	com-
8f#	-bien
8g#	la
4an	ter-
8g#	-re est
8an	loin-
=39	=39
2bn	-tai-
4bn}	-ne}
{8bn	{Ou\
8bn	fleu-
=40	=40
(8cc#	-ris-
8bn)	|
(8an	-sent
8g)	|
4f#	nos
8dn	vi-
8en	-si-
=41	=41
*M12/8	*
[1.f#	-ons.
=42	=42
2.f#]}	|}
2.r	.
=43	=43
2.r	.
4r	.
8r	.
8r	.
8r	.
{8g-	{Vois~
=44	=44
[4.g-	~tu:
4g-]	|
8g-	le
4g-	beau
8g-	pa-
4a-	-ys
8b-	des
=45	=45
2.cc	re^-
2.b-}	-ves}
=46	=46
{4g-	{Est
8a-	trop
4.b-	haut
4g-	pour
8g-	les
4a-	pas
8b-	hu-
=47	=47
1.cc}	-mains}
=48	=48
{4cc	{Res-
8cc	-pi-
4ff	-rons
8ee-	a\
(4dd-	deux
8b-)	|
(8g-	les
8b-)	|
8dd-	jas-
=49	=49
1.ee-}	-mins.}
!!mm.50-end at 60 rpt. 
*-	*-
